X: 1
T: Memories of Herbie MacLeod
C: Aonghas Grant
R: retreat march, waltz
Z: 2014 John Chambers <jc:trillian.mit.edu>
S: handwritten version from Barbara McOwen
M: 3/4
L: 1/8
K: G
%%slurgraces
(B>c) |\
"G"d2 (Bd) "G7"BG | "C"{EG}E2 C2 (D>G) | "G"B2 (G>B) ({B}dB) | "D7"A4 (B>c) |\
"G"d2 Bd "G7"(B/A/G) | "C"E2 C2 ({D}G>A) | "G"{Bd}B2 (A>B) "D7"({cd}cA) | "G"G4 :|
|: (D>E) |\
"G"G2 GB "D7"AB | "G"G2 D2 (B,>D) | "G"{c}B2 G>B (dB) | "D7"A4 (B>c) |\
"G"d2 Bd "G7"(B/A/G) | "C"{EG}E2 C2 (G>A) | "G"{c}B2 (A>B) "D7"({cd}cA) | "G"G4 :|
|: (D>G) |\
"G"({c}B>A) (Bd) "G7"(B/A/G) | "C"{EG}E2 C2 (DG) | "G"{Bd}B2 (AG) (B/c/d/B/) | "D7"[A4D4] (B>c) |\
"G"d2 Bd "G7"(B/A/G) | "C"{EG}E2 C2 (G>A) | "G"{c}B2 (A>B) "D7"(cA) | "G"G4 :|
|: (D>E) |\
"G"G2 dD "G7"(B/A/G) | "C"E2 C2 (D>G) | "G"B2 (G>B) {Bc}dB | "D7"[A4D4] (B>c) |\
"G"d2 D>E "G7"GF | "D"{EG}[E2G,2] [D2G,2] (B>c) | "G"d2 (A>c) "D7"{Bd}BA | "G"G4 :|
